X: 253
T:The Loughs of Cavan
R:reel
C:Ed Reavy
Z: transcribed by Bil 3/00
M:2/2
L:1/8
Z:Joe Reavy
N:Cavan, "the place of caves," is 
N:also a region spotted with lovely lakes 
N:like Lough Sheelin. Ed likes to refer 
N:to his Cavan birthplace as "my old lake country home."
K:G
GFGB AF (3FEF|dBcA BGAF|GBAF DEFA|dBcA BGAF|
GFGB AF (3FEF|dBcA BGAF|GBAF DEFA|dBcA BGGf|
g2 ag fddf|eccB cdef|gbag fafd|cBAc BGGf|
g2 ag fddf|eccB cdef|gbag fafd|cedc (3Bcd cA||
